X:1
T:Vostra moglie fu baciata
T:John Wall Callcott (1766-1821)
T:Vostra moglie fu baciata
T:A three part catch
T:Copyright © 
T:Copyright © 
T:Copyright © 
C:John Wall Callcott (1766-1821)
Z:Copyright ©
%%score [ 1 2 3 ]
L:1/8
M:2/4
K:Eb
V:1 treble-8 transpose=-12 nm="Tenor or treble" snm="T."
V:2 treble-8 transpose=-12 nm="Tenor or treble" snm="T."
V:3 treble-8 transpose=-12 nm="Tenor or treble" snm="T."
V:1
 B>B | c/B/ c/B/ e>c | =A/B/B _A>A | B/A/ B/A/ c>A | ^F/G/G e>_d | ce z2 | z2 f>e | df z2 | z2 cd | %9
w: Vos- tra|mog- * lie _ fu ba-|cia- * ta, vos- tra|mog- * lie _ fu ba-|cia- * ta, fu ba-|cia- ta,|fu ba-|cia- ta.|Ch'e- ra\_il|
 eB AG | !fermata!F2 c>c | B c/A/ GF | G2 || G>G | A/G/ A/G/ c>A | ^F/G/G =F>F | G/F/ G/F/ c>F | %17
w: so- lo vos- tro|ben, ch'e- ra\_il|so lo _ vos- tro|ben.|Io non|so _ se _ lo sa-|pe- * te, Io non|so _ se _ lo sa-|
 D/E/E z2 | z2{e} _d{c}B | cA z2 | z2{f} e{d}c | dB =A_A | GG FE | !fermata!D2 A>A | G A/F/ ED | %25
w: pe- * te,||vol- te,||vol- te. E fu|cen- to vol- te\_al-|men, e fu|cen- to _ vol- te\_al-|
 E2 || EE | EE z E/E/ | EE FF | FF z D/D/ | EE GB | Ac BE | A2 =Ac | Bd cF | B2 FF | EE DE | %36
w: men.|Quan- do?|do- ve? non ta-|ce- te! Quan- do?|do- ve? non ta-|ce- te! La- ce-|rar- mi sen- to\_il|sen, la- ce-|rar- mi sen- to\_il|sen, la- ce-|rar- mi sen- to\_il|
 !fermata!B2 FD | EA B"^[continue ad libitum]"B | E2 | %39
w: sen, la- ce-|rar- mi sen- to\_il|sen.|
V:2
 z2 | z4 | z4 | z4 | z4 | z4 | z4 | z4 | z4 | z4 | z4 | z4 | z2 || B>B | c/B/ c/B/ e>c | %15
w: |||||||||||||Vos- tra|mog- * lie _ fu ba-|
 =A/B/B _A>A | B/A/ B/A/ c>A | ^F/G/G e>_d | ce z2 | z2 f>e | df z2 | z2 cd | eB AG | %23
w: cia- * ta, vos- tra|mog- * lie _ fu ba-|cia- * ta, fu ba-|cia- ta,|fu ba-|cia- ta.|Ch'e- ra\_il|so- lo vos- tro|
 !fermata!F2 c>c | B c/A/ GF | G2 || G>G | A/G/ A/G/ c>A | ^F/G/G =F>F | G/F/ G/F/ c>F | D/E/E z2 | %31
w: ben, ch'e- ra\_il|so- lo _ vos- tro|ben.|Io non|so _ se _ lo sa-|pe- * te, Io non|so _ se _ lo sa-|pe- * te,|
 z2{e} _d{c}B | cA z2 | z2{f} e{d}c | dB =A_A | GG FE | !fermata!D2 A>A | G A/F/ ED | E2 | %39
w: |vol- te,||vol- te. E fu|cen- to vol- te\_al-|men, e fu|cen- to _ vol- te\_al-|men.|
V:3
 z2 | z4 | z4 | z4 | z4 | z4 | z4 | z4 | z4 | z4 | z4 | z4 | z2 || z2 | z4 | z4 | z4 | z4 | z4 | %19
w: |||||||||||||||||||
 z4 | z4 | z4 | z4 | z4 | z4 | z2 || B>B | c/B/ c/B/ e>c | =A/B/B _A>A | B/A/ B/A/ c>A | %30
w: |||||||Vos- tra|mog- * lie _ fu ba-|cia- * ta, vos- tra|mog- * lie _ fu ba-|
 ^F/G/G e>_d | ce z2 | z2 f>e | df z2 | z2 cd | eB AG | !fermata!F2 c>c | B c/A/ GF | G2 | %39
w: cia- * ta, fu ba-|cia- ta,|fu ba-|cia- ta.|Ch'e- ra\_il|so- lo vos- tro|ben, ch'e- ra\_il|so lo _ vos- tro|ben.|

